src/pos-icons/account-settings-outline.svg

<svg height="24" viewBox="0 0 24 24" width="24" xmlns="http://www.w3.org/2000/svg"><path d="m12 4c2.21 0 4 1.79 4 4s-1.79 4-4 4-4-1.79-4-4 1.79-4 4-4m0 2c-1.1 0-2 .9-2 2s.9 2 2 2 2-.89 2-2-.89-2-2-2m0 7c2.67 0 8 1.33 8 4v3h-16v-3c0-2.67 5.33-4 8-4m0 1.9c-2.97 0-6.1 1.46-6.1 2.1v1.1h12.2v-1.1c0-.64-3.13-2.1-6.1-2.1m1 7.1h-2v2h2zm4 0h-2v2h2zm-8 0h-2v2h2z"/></svg>

<?xml version="1.0" encoding="UTF-8"?><!DOCTYPE svg PUBLIC "-//W3C//DTD SVG 1.1//EN" "http://www.w3.org/Graphics/SVG/1.1/DTD/svg11.dtd"><svg xmlns="http://www.w3.org/2000/svg" xmlns:xlink="http://www.w3.org/1999/xlink" version="1.1" id="mdi-account-settings-outline" width="24" height="24" viewBox="0 0 24 24"><path d="M12 4C14.21 4 16 5.79 16 8S14.21 12 12 12 8 10.21 8 8 9.79 4 12 4M12 6C10.9 6 10 6.9 10 8S10.9 10 12 10 14 9.11 14 8 13.11 6 12 6M12 13C14.67 13 20 14.33 20 17V20H4V17C4 14.33 9.33 13 12 13M12 14.9C9.03 14.9 5.9 16.36 5.9 17V18.1H18.1V17C18.1 16.36 14.97 14.9 12 14.9M13 22H11V24H13V22M17 22H15V24H17V22M9 22H7V24H9V22Z" /></svg>
